X: 18
T: The Fancy ____
N: The last word of the title is mostly obscured.
%C: Mr. Gray
%R: reel
B: Mr. Gray "24 Country Dances for the Year 1803" p.9 #2
S: http://imslp.org/wiki/24_Country_Dances_for_the_Year_1803_(Various)  2013-12-2
Z: 2013 John Chambers <jc:trillian.mit.edu>
M: 2/4
L: 1/16
K: D
|:\
abag (fd).d2 | gfed (cA).A2 |\
abaf gbeg | faAc d2d2 :|
|:\
ecAg fada | bged cAA2 |\
fadf gbeg | faAc d2d2 :|
% - - - - - - - - - - - - - - - - - - - - - - - - -
%%begintext align
%% Change, sides  back, again, hands  across, back
%% again, lead down  the middle, up again,
%% Allemand.
%%endtext

%%sep 1 1 500
%%sep 1 1 500
